X:0368
T:John Anderson my Jo.
T:For the Violin or Fife.
N:What kind of fife could play this?
M:2/4
L:1/8
Q:1/4=90
I: || :: ||
Z:Jack Campin * www.campin.me.uk * 2009
K:E Minor
D   |B,EEF|G2GA|FDD>E|D3(E/D/)|B,EEF|GFGA|BAGA  |B3||
c   |BAGA |BcdB|AGFG |A2GA    |BGAF |GEFB|B,EE^D|E3||
d   |Beef |g2ga|fdde |d2ed    |Beef |g2fe|fdBB  |B3
d/c/|BGdG |gGdG|DEFG |A2GA    |BGAF |GEFB|B,EE^D|E3|]
<end>
<start>
